!!!OTL: The Alphabet Song
!!!COM: unknown
!!!ODT: unknown
!!!YOR: Fake Book of the World's Favorite Songs
!!!YOY: 1990
!!!AST: Children's song
!!!YEC: Brian Luke, 2001
**kern	**harm
*k[b-]	*k[b-]
*M4/4	*M4/4
*F:	*F:
*>A	*>A
=1	=1
4f	I
4f	.
4cc	.
4cc	.
=2	=2
4dd	IV
4dd	.
2cc	I
=3	=3
4b-	V7
4b-	.
4a	I
4a	.
=4	=4
8g	V7
8g	.
8g	.
8g	.
2f	I;
*>B	*>B
=5	=5
4cc	.
4cc	.
2b-	V7
=6	=6
4a	I
4a	.
2g	V7
=7	=7
8cc	I
8cc	.
4cc	.
2b-	V7
=8	=8
4a	I
4a	.
2g	V7
*>A	*>A
=9	=9
4f	I
4f	.
4cc	.
4cc	.
=10	=10
4dd	IV
4dd	.
2cc	I
=11	=11
4b-	V7
4b-	.
4a	I
4a	.
=12	=12
4g	V7
4g	.
2f	I;
*-	*-
